assets/symbols/mulberry/patch_on_clothes.svg

<svg height="850.394" viewBox="0 0 850.394 850.394" width="850.394" xmlns="http://www.w3.org/2000/svg"><path d="m361.36 478.92 9.82 19.6-17.93 8.98-20.59 10.31-19.92 9.97-9.83-19.63-10.31-20.58-10.45-20.88 19.58-9.81 20.59-10.31 18.26-9.14 10.48 20.91z" fill="#0b00ea"/><g fill="#f6cc4b"><path d="m536.49 121.58h55.19l-.54 86.67h-.69l-57.11-83.19v-3.48z"/><path d="m591.94 80.06-.26 41.52h-39.13v-41.52zm-55.45 0h16.06v41.52h-16.06zm0 0v41.52h-115.09v-41.52zm-115.09 2.13v39.39h-112.49v-41.52h112.49zm-128.55-2.13h16.06v41.52h-16.06zm0 0v41.52h-41.56l-.26-41.52z"/><path d="m308.91 121.58h2.36v2.35l-57.11 83.19-2.33.01-.54-85.55h41.56zm278.91 618.02-.19 30.29h-136.34l-1.76-30.09 3.51-.2zm-194.37 0-1.76 30.42h-136.34l-.19-30.42z"/><path d="m353.25 507.5 17.93-8.98-9.82-19.6-10.3-20.58-10.48-20.91-18.26 9.141-20.59 10.31-19.58 9.811 10.45 20.88 10.31 20.58 9.83 19.63 19.92-9.971zm68.15-385.92v135.97l-27.95 482.05h-138.29l-3.33-532.47 2.33-.01 57.11-83.19v-2.35zm169.74 86.67-3.32 531.35h-134.78l-3.51.2-28.13-481.47v-136.75h111.94v3.48l57.11 83.19z"/></g><g fill="none" stroke="#231f20"><path d="m552.55 80.06h49m-292.64 0h227.58m-115.09 177.49-27.95 482.05-1.76 30.42h-136.34l-.19-30.42-3.33-532.47-.54-85.55-.26-41.52h41.82m128.55 178.27 28.13 481.47 1.76 30.09h136.34l.19-30.29 3.32-531.35.54-86.67.26-41.52v-.12m-39.39 41.64h43.38m-287.02 0h227.58m-285.15 0h41.51m128.55-39.39v200.38" stroke-width="21"/><path d="m292.85 80.06h16.06v41.52h-16.06zm243.64 0h16.06v41.52h-16.06z" stroke-width="12.835"/><path d="m254.16 207.12 57.11-83.19m279.18 84.32-57.11-83.19m-278.18 614.54h138.3m59.58 0h138.3" stroke-width="21"/><path d="m361.36 478.92 9.82 19.6-17.93 8.98-20.59 10.31-19.92 9.97-9.83-19.63-10.31-20.58-10.45-20.88 19.58-9.81 20.59-10.31 18.26-9.14 10.48 20.91z" stroke-width="14"/><path d="m292.42 438.29 9.31 18.59 3.5 6.98m7.78-35.88 9.31 18.59 3.49 6.98m2.86 56.29 3.99 7.97 8.81 17.59m7.79-35.88 3.99 7.98 8.81 17.59m-78.03-7.48 18.88-9.46 6.68-3.35m-35.87-7.77 18.88-9.46 6.68-3.35m54.53-1.51 7.55-3.79 18.01-9.02m-35.87-7.77 7.56-3.79 18.01-9.02" stroke-linecap="round" stroke-linejoin="round" stroke-width="9.627"/></g><path d="m0 0h850.394v850.394h-850.394z" fill="none"/></svg>

<svg xmlns="http://www.w3.org/2000/svg" width="850.394" height="850.394" viewBox="0 0 850.394 850.394" overflow="visible"><path fill="#0b00ea" d="M361.36 478.92l9.82 19.6-17.93 8.98-20.59 10.31-19.92 9.97-9.83-19.63-10.31-20.58-10.45-20.88 19.58-9.81 20.59-10.31 18.26-9.14 10.48 20.91z"/><path fill="#f6cc4b" d="M536.49 121.58h55.19l-.54 86.67h-.69l-57.11-83.19v-3.48z"/><path fill="#f6cc4b" d="M591.94 80.06l-.26 41.52h-39.13V80.06zM536.49 80.06h16.06v41.52h-16.06zM536.49 80.06v41.52H421.4V80.06zM421.4 82.19v39.39H308.91V80.06H421.4zM292.85 80.06h16.06v41.52h-16.06zM292.85 80.06v41.52H251.29l-.26-41.52z"/><path fill="#f6cc4b" d="M308.91 121.58h2.36v2.35l-57.11 83.19-2.33.01-.54-85.55H292.85zM587.82 739.6l-.19 30.29H451.29l-1.76-30.09 3.51-.2zM393.45 739.6l-1.76 30.42H255.35l-.19-30.42z"/><path d="M353.25 507.5l17.93-8.98-9.82-19.6-10.3-20.58-10.48-20.91-18.26 9.141-20.59 10.31-19.58 9.811 10.45 20.88 10.31 20.58 9.83 19.63 19.92-9.971 20.59-10.311zm68.15-385.92v135.97L393.45 739.6H255.16l-3.33-532.47 2.33-.01 57.11-83.19v-2.35H421.4zM591.14 208.25l-3.32 531.35H453.04l-3.51.2-28.13-481.47V121.58h111.94v3.48l57.11 83.19z" fill="#f6cc4b"/><g fill="none" stroke="#231f20"><path stroke-width="21" d="M552.55 80.06h49M308.91 80.06H536.49M421.4 257.55L393.45 739.6l-1.76 30.42H255.35l-.19-30.42-3.33-532.47-.54-85.55-.26-41.52h41.82M421.4 258.33l28.13 481.47 1.76 30.09h136.34l.19-30.29 3.32-531.35.54-86.67.26-41.52v-.12M552.55 121.58h43.38M308.91 121.58h227.58M251.34 121.58h41.51M421.4 82.19V282.57"/><path stroke-width="12.835" d="M292.85 80.06h16.06v41.52h-16.06zM536.49 80.06h16.06v41.52h-16.06z"/><path stroke-width="21" d="M254.16 207.12l57.11-83.19M590.45 208.25l-57.11-83.19M255.16 739.6H393.46M453.04 739.6h138.3"/><path stroke-width="14" d="M361.36 478.92l9.82 19.6-17.93 8.98-20.59 10.31-19.92 9.97-9.83-19.63-10.31-20.58-10.45-20.88 19.58-9.81 20.59-10.31 18.26-9.14 10.48 20.91z"/><path stroke-width="9.627" stroke-linecap="round" stroke-linejoin="round" d="M292.42 438.29l9.31 18.59 3.5 6.98M313.01 427.98l9.31 18.59 3.49 6.98M328.67 509.84l3.99 7.97 8.81 17.59M349.26 499.52l3.99 7.98 8.81 17.59M284.03 517.61l18.88-9.46 6.68-3.35M273.72 497.03l18.88-9.46 6.68-3.35M353.81 482.71l7.55-3.79 18.01-9.02M343.5 462.13l7.56-3.79 18.01-9.02"/></g><path fill="none" d="M0 0h850.394v850.394H0z"/></svg>
